scalable/apps/freecad.svg

<?xml version="1.0" encoding="UTF-8" standalone="no"?>
<svg
   viewBox="0 0 128 128"
   style="display:inline;enable-background:new"
   version="1.0"
   id="svg11300"
   height="128"
   width="128"
   xml:space="preserve"
   xmlns:xlink="http://www.w3.org/1999/xlink"
   xmlns="http://www.w3.org/2000/svg"
   xmlns:svg="http://www.w3.org/2000/svg"
   xmlns:rdf="http://www.w3.org/1999/02/22-rdf-syntax-ns#"
   xmlns:cc="http://creativecommons.org/ns#"
   xmlns:dc="http://purl.org/dc/elements/1.1/"><title
     id="title4162">Adwaita Icon Template</title><defs
     id="defs3"><linearGradient
       id="linearGradient28"><stop
         style="stop-color:#000000;stop-opacity:1;"
         offset="0.96518397"
         id="stop26" /><stop
         style="stop-color:#ffffff;stop-opacity:1;"
         offset="1"
         id="stop27" /></linearGradient><linearGradient
       id="linearGradient9"><stop
         id="stop5"
         offset="0"
         style="stop-color:#ffffff;stop-opacity:1;" /><stop
         style="stop-color:#000000;stop-opacity:1;"
         offset="0.0401561"
         id="stop6" /><stop
         id="stop7"
         offset="0.38767949"
         style="stop-color:#000000;stop-opacity:1;" /><stop
         style="stop-color:#ffffff;stop-opacity:1;"
         offset="0.41716132"
         id="stop8" /><stop
         style="stop-color:#000000;stop-opacity:1;"
         offset="0.45639753"
         id="stop10" /><stop
         style="stop-color:#000000;stop-opacity:1;"
         offset="0.62564284"
         id="stop11" /><stop
         style="stop-color:#ffffff;stop-opacity:1;"
         offset="0.6637615"
         id="stop12" /><stop
         style="stop-color:#000000;stop-opacity:1;"
         offset="0.70008314"
         id="stop13" /><stop
         style="stop-color:#000000;stop-opacity:1;"
         offset="0.90190518"
         id="stop14" /><stop
         style="stop-color:#ffffff;stop-opacity:1;"
         offset="0.93000478"
         id="stop15" /><stop
         style="stop-color:#000000;stop-opacity:1;"
         offset="0.9576655"
         id="stop17" /></linearGradient><linearGradient
       xlink:href="#linearGradient28"
       id="linearGradient4"
       x1="259.54156"
       y1="90.771034"
       x2="342.87592"
       y2="90.771034"
       gradientUnits="userSpaceOnUse"
       gradientTransform="translate(-237.20889,-24.77103)" /><linearGradient
       xlink:href="#linearGradient9"
       id="linearGradient18"
       gradientUnits="userSpaceOnUse"
       gradientTransform="translate(-237.20889,-24.77103)"
       x1="259.54156"
       y1="90.771034"
       x2="342.87592"
       y2="90.771034" /></defs><metadata
     id="metadata4"><rdf:RDF><cc:Work
         rdf:about=""><dc:format>image/svg+xml</dc:format><dc:type
           rdf:resource="http://purl.org/dc/dcmitype/StillImage" /><dc:creator><cc:Agent><dc:title>GNOME Design Team</dc:title></cc:Agent></dc:creator><dc:source /><cc:license
           rdf:resource="http://creativecommons.org/licenses/by-sa/4.0/" /><dc:title>Adwaita Icon Template</dc:title><dc:subject><rdf:Bag /></dc:subject><dc:date /><dc:rights><cc:Agent><dc:title /></cc:Agent></dc:rights><dc:publisher><cc:Agent><dc:title /></cc:Agent></dc:publisher><dc:identifier /><dc:relation /><dc:language /><dc:coverage /><dc:description /><dc:contributor><cc:Agent><dc:title /></cc:Agent></dc:contributor></cc:Work><cc:License
         rdf:about="http://creativecommons.org/licenses/by-sa/4.0/"><cc:permits
           rdf:resource="http://creativecommons.org/ns#Reproduction" /><cc:permits
           rdf:resource="http://creativecommons.org/ns#Distribution" /><cc:requires
           rdf:resource="http://creativecommons.org/ns#Notice" /><cc:requires
           rdf:resource="http://creativecommons.org/ns#Attribution" /><cc:permits
           rdf:resource="http://creativecommons.org/ns#DerivativeWorks" /><cc:requires
           rdf:resource="http://creativecommons.org/ns#ShareAlike" /></cc:License></rdf:RDF></metadata><path
     d="M 105.66634,32.66667 88.99968,49.33333 H 55.66634 v 12.5 H 72.33301 V 78.5 H 55.66634 V 99.33333 L 38.99968,112 v 4 h 16.87658 c 1.26358,0 2.38287,-0.81363 2.77329,-2.01538 l 3.01663,-9.2845 c 0.28833,-0.88787 0.98537,-1.58262 1.87325,-1.87112 l 2.319,-0.75358 c 0.88791,-0.28875 1.8607,-0.13542 2.61608,0.41333 l 7.89571,5.73821 c 1.02221,0.74262 2.40779,0.74262 3.43,0 l 7.0775,-5.14396 c 0.82296,-0.59784 1.19457,-1.56471 1.19614,-2.54891 l 0.006,-3.775611 -3.1594,-6.219899 c -0.28875,-0.88791 -0.13334,-1.86071 0.41541,-2.61608 l 1.43405,-1.97233 c 0.5487,-0.7553 1.42412,-1.20355 2.3577,-1.20363 l 9.7625,0.002 c 1.26367,4e-5 2.38288,-0.81571 2.7733,-2.0175 l 2.70441,-8.31988 c 0.12067,-0.371431 0.13335,-0.752803 0.13411,-1.127104 l 0.008,-3.847182 c 0.001,-0.494362 -0.78222,2.016834 -1.20135,1.712206 l -7.89788,-5.73817 c -0.75533,-0.54879 -1.20146,-1.42408 -1.20146,-2.35775 v -2.43954 c 9e-5,-0.93363 0.44609,-1.81117 1.20146,-2.35988 l 9.05413,-6.57795 c 0.75546,-0.54871 1.20162,-1.42617 1.20162,-2.3598 z"
     style="fill:#418fde;fill-opacity:1;fill-rule:evenodd;stroke:none;stroke-width:0.551179;stroke-linecap:square"
     id="path8-4-4-2" /><path
     id="path7-7-2-6"
     style="display:inline;fill:#ff585d;fill-opacity:1;fill-rule:evenodd;stroke:none;stroke-width:0.551179;stroke-linecap:square"
     d="M 88.99968,16 72.33301,32.66667 H 88.99968 V 49.33333 L 105.66634,32.66667 V 16 Z m -50,66.66667 -16.66667,16.66666 V 116 h 16.66667 v -4 L 55.66634,99.33333 H 38.99968 Z" /><path
     d="M 38.99968,16 22.33301,32.66667 V 99.33333 L 38.99968,82.66667 v -50 H 72.33301 L 88.99968,16 Z"
     style="fill:#cb333b;fill-rule:evenodd;stroke:none;stroke-width:0.551179;stroke-linecap:square"
     id="path3-1-7-1" /><path
     id="path8-4-4-2-3"
     style="display:inline;opacity:0.4;fill:url(#linearGradient18);fill-opacity:1;fill-rule:evenodd;stroke:none;stroke-width:0.551179;stroke-linecap:square;enable-background:new"
     d="m 94.20997,16 h -5.21094 -50 L 22.33301,32.666016 V 99.333984 116 h 16.66602 16.87695 c 1.26358,0 2.38302,-0.81388 2.77344,-2.01562 l 3.01758,-9.28516 c 0.28833,-0.88787 0.98517,-1.58258 1.87305,-1.8711 l 2.31835,-0.75195 c 0.88791,-0.28875 1.85986,-0.13664 2.61524,0.41211 l 7.89648,5.73828 c 1.02221,0.74262 2.40748,0.74262 3.42969,0 l 7.07813,-5.14453 c 0.82296,-0.59784 1.19374,-1.56463 1.19531,-2.54883 l 0.006,-3.775388 -3.15821,-6.21875 c -0.28874,-0.88791 -0.13468,-1.861827 0.41407,-2.617187 l 1.43554,-1.972656 c 0.5487,-0.7553 1.42385,-1.203045 2.35743,-1.203125 l 9.76172,0.002 c 1.26366,4e-5 2.38301,-0.815788 2.77343,-2.017578 l 2.70508,-8.31836 c 0.12067,-0.37143 0.13205,-0.754606 0.13281,-1.128906 l 0.01,-3.845703 c 10e-4,-0.49436 -0.784,2.015568 -1.20313,1.710938 l -7.89648,-5.738282 c -0.75532,-0.54879 -1.20117,-1.423752 -1.20117,-2.357422 V 60.613328 Z M 38.99903,32.666016 H 72.33301 88.99903 V 49.333984 H 55.667 v 12.5 H 72.33301 V 78.5 H 55.667 V 99.333984 H 38.99903 V 82.666016 Z" /><path
     id="path18"
     style="display:inline;opacity:0.4;fill:url(#linearGradient4);fill-opacity:1;fill-rule:evenodd;stroke:none;stroke-width:0.551179;stroke-linecap:square;enable-background:new"
     d="m 94.20997,16 v 44.613281 c 9e-5,-0.93363 0.44581,-1.810665 1.20117,-2.359375 l 9.05273,-6.578125 c 0.75546,-0.54871 1.20313,-1.425745 1.20313,-2.359375 V 32.666016 16 Z" /><path
     d="M 105.66634,28.666668 88.99968,45.333335 H 55.66634 v 12.5 H 72.33301 V 74.500001 H 55.66634 V 95.333334 L 38.99968,112 h 16.87658 c 1.26358,0 2.38287,-0.81362 2.77329,-2.01537 l 3.01663,-9.2845 c 0.28833,-0.887879 0.98537,-1.582629 1.87325,-1.871129 l 2.319,-0.753584 c 0.88791,-0.28875 1.8607,-0.135416 2.61608,0.413334 l 7.89571,5.738209 c 1.02221,0.74262 2.40779,0.74262 3.43,0 l 7.0775,-5.143959 c 1.02233,-0.742667 1.44983,-2.058084 1.05937,-3.259875 l -3.01662,-9.284542 c -0.28875,-0.887917 -0.13334,-1.860708 0.41541,-2.616083 l 1.43405,-1.972333 c 0.5487,-0.755292 1.42412,-1.203542 2.3577,-1.203625 l 9.7625,0.0021 c 1.26367,4.1e-5 2.38288,-0.815709 2.7733,-2.0175 l 2.70441,-8.319875 c 0.39042,-1.20175 -0.0375,-2.519375 -1.05937,-3.262084 l -7.89788,-5.738166 c -0.75533,-0.548792 -1.20146,-1.424083 -1.20146,-2.35775 v -2.439542 c 9e-5,-0.933625 0.44609,-1.811166 1.20146,-2.359875 l 9.05413,-6.577958 c 0.75546,-0.548708 1.20162,-1.426167 1.20162,-2.359792 z"
     style="fill:#418fde;fill-opacity:1;fill-rule:evenodd;stroke:none;stroke-width:0.551179;stroke-linecap:square"
     id="path8-4-4" /><path
     id="path7-7-2"
     style="display:inline;fill:#ff585d;fill-opacity:1;fill-rule:evenodd;stroke:none;stroke-width:0.551179;stroke-linecap:square"
     d="M 88.99968,12.000002 72.33301,28.666668 H 88.99968 V 45.333335 L 105.66634,28.666668 V 12.000002 Z m -50,66.666666 -16.66667,16.666666 V 112 H 38.99968 L 55.66634,95.333334 H 38.99968 Z" /><path
     d="M 38.99968,12.000002 22.33301,28.666668 V 95.333334 L 38.99968,78.666668 v -50 H 72.33301 L 88.99968,12.000002 Z"
     style="fill:#cb333b;fill-rule:evenodd;stroke:none;stroke-width:0.551179;stroke-linecap:square"
     id="path3-1-7" /><path
     d="M 38.99968,95.333334 H 55.66634 V 74.500001 H 72.33301 V 57.833335 H 55.66634 v -12.5 H 88.99968 V 28.666668 h -50 z"
     style="fill:#ffffff;fill-opacity:1;fill-rule:evenodd;stroke:none;stroke-width:0.551179;stroke-linecap:square"
     id="path9-4-0" /></svg>

<?xml version="1.0" encoding="UTF-8" standalone="no"?>
<svg
   viewBox="0 0 128 128"
   style="display:inline;enable-background:new"
   version="1.0"
   id="svg11300"
   height="128"
   width="128"
   xml:space="preserve"
   xmlns:xlink="http://www.w3.org/1999/xlink"
   xmlns="http://www.w3.org/2000/svg"
   xmlns:svg="http://www.w3.org/2000/svg"
   xmlns:rdf="http://www.w3.org/1999/02/22-rdf-syntax-ns#"
   xmlns:cc="http://creativecommons.org/ns#"
   xmlns:dc="http://purl.org/dc/elements/1.1/"><title
     id="title4162">Adwaita Icon Template</title><defs
     id="defs3"><linearGradient
       id="linearGradient28"><stop
         style="stop-color:#000000;stop-opacity:1;"
         offset="0.96518397"
         id="stop26" /><stop
         style="stop-color:#ffffff;stop-opacity:1;"
         offset="1"
         id="stop27" /></linearGradient><linearGradient
       id="linearGradient9"><stop
         id="stop5"
         offset="0"
         style="stop-color:#000000;stop-opacity:1;" /><stop
         id="stop9"
         offset="0.02998283"
         style="stop-color:#ffffff;stop-opacity:1;" /><stop
         style="stop-color:#000000;stop-opacity:1;"
         offset="0.07168937"
         id="stop6" /><stop
         id="stop7"
         offset="0.38767949"
         style="stop-color:#000000;stop-opacity:1;" /><stop
         style="stop-color:#ffffff;stop-opacity:1;"
         offset="0.41716132"
         id="stop8" /><stop
         style="stop-color:#000000;stop-opacity:1;"
         offset="0.45639753"
         id="stop10" /><stop
         style="stop-color:#000000;stop-opacity:1;"
         offset="0.62564284"
         id="stop11" /><stop
         style="stop-color:#ffffff;stop-opacity:1;"
         offset="0.6637615"
         id="stop12" /><stop
         style="stop-color:#000000;stop-opacity:1;"
         offset="0.70008314"
         id="stop13" /><stop
         style="stop-color:#000000;stop-opacity:1;"
         offset="0.90190518"
         id="stop14" /><stop
         style="stop-color:#ffffff;stop-opacity:1;"
         offset="0.93000478"
         id="stop15" /><stop
         style="stop-color:#000000;stop-opacity:1;"
         offset="0.9576655"
         id="stop17" /></linearGradient><linearGradient
       xlink:href="#linearGradient28"
       id="linearGradient4"
       x1="259.54156"
       y1="90.771034"
       x2="342.87592"
       y2="90.771034"
       gradientUnits="userSpaceOnUse"
       gradientTransform="translate(-237.20889,-24.77103)" /><linearGradient
       xlink:href="#linearGradient9"
       id="linearGradient18"
       gradientUnits="userSpaceOnUse"
       gradientTransform="translate(-237.20889,-24.77103)"
       x1="259.54156"
       y1="90.771034"
       x2="342.87592"
       y2="90.771034" /></defs><metadata
     id="metadata4"><rdf:RDF><cc:Work
         rdf:about=""><dc:format>image/svg+xml</dc:format><dc:type
           rdf:resource="http://purl.org/dc/dcmitype/StillImage" /><dc:creator><cc:Agent><dc:title>GNOME Design Team</dc:title></cc:Agent></dc:creator><dc:source /><cc:license
           rdf:resource="http://creativecommons.org/licenses/by-sa/4.0/" /><dc:title>Adwaita Icon Template</dc:title><dc:subject><rdf:Bag /></dc:subject><dc:date /><dc:rights><cc:Agent><dc:title /></cc:Agent></dc:rights><dc:publisher><cc:Agent><dc:title /></cc:Agent></dc:publisher><dc:identifier /><dc:relation /><dc:language /><dc:coverage /><dc:description /><dc:contributor><cc:Agent><dc:title /></cc:Agent></dc:contributor></cc:Work><cc:License
         rdf:about="http://creativecommons.org/licenses/by-sa/4.0/"><cc:permits
           rdf:resource="http://creativecommons.org/ns#Reproduction" /><cc:permits
           rdf:resource="http://creativecommons.org/ns#Distribution" /><cc:requires
           rdf:resource="http://creativecommons.org/ns#Notice" /><cc:requires
           rdf:resource="http://creativecommons.org/ns#Attribution" /><cc:permits
           rdf:resource="http://creativecommons.org/ns#DerivativeWorks" /><cc:requires
           rdf:resource="http://creativecommons.org/ns#ShareAlike" /></cc:License></rdf:RDF></metadata><path
     d="M 105.66634,32.66667 88.99968,49.33333 H 55.66634 v 12.5 H 72.33301 V 78.5 H 55.66634 V 99.33333 L 38.99968,112 v 4 h 16.87658 c 1.26358,0 2.38287,-0.81363 2.77329,-2.01538 l 3.01663,-9.2845 c 0.28833,-0.88787 0.98537,-1.58262 1.87325,-1.87112 l 2.319,-0.75358 c 0.88791,-0.28875 1.8607,-0.13542 2.61608,0.41333 l 7.89571,5.73821 c 1.02221,0.74262 2.40779,0.74262 3.43,0 l 7.0775,-5.14396 c 0.82296,-0.59784 1.19457,-1.56471 1.19614,-2.54891 l 0.006,-3.775611 -3.1594,-6.219899 c -0.28875,-0.88791 -0.13334,-1.86071 0.41541,-2.61608 l 1.43405,-1.97233 c 0.5487,-0.7553 1.42412,-1.20355 2.3577,-1.20363 l 9.7625,0.002 c 1.26367,4e-5 2.38288,-0.81571 2.7733,-2.0175 l 2.70441,-8.31988 c 0.12067,-0.371431 0.13335,-0.752803 0.13411,-1.127104 l 0.008,-3.847182 c 0.001,-0.494362 -0.78222,2.016834 -1.20135,1.712206 l -7.89788,-5.73817 c -0.75533,-0.54879 -1.20146,-1.42408 -1.20146,-2.35775 v -2.43954 c 9e-5,-0.93363 0.44609,-1.81117 1.20146,-2.35988 l 9.05413,-6.57795 c 0.75546,-0.54871 1.20162,-1.42617 1.20162,-2.3598 z"
     style="fill:#418fde;fill-opacity:1;fill-rule:evenodd;stroke:none;stroke-width:0.551179;stroke-linecap:square"
     id="path8-4-4-2" /><path
     id="path9"
     style="display:inline;fill:#ff585d;fill-opacity:1;fill-rule:evenodd;stroke:none;stroke-width:0.551179;stroke-linecap:square"
     d="M 105.66602 32.666016 L 105.66602 20 C 105.66602 18.53937 105.27202 17.176159 104.59375 16 L 89 16 L 72.333984 32.666016 L 89 32.666016 L 89 49.333984 L 105.66602 32.666016 z " /><path
     id="path5"
     style="display:inline;fill:#ff585d;fill-opacity:1;fill-rule:evenodd;stroke:none;stroke-width:0.551179;stroke-linecap:square"
     d="M 22.333984 99.333984 L 22.333984 108 C 22.333984 112.432 25.901984 116 30.333984 116 L 39 116 L 39 112 L 55.666016 99.333984 L 39 99.333984 L 39 82.666016 L 22.333984 99.333984 z " /><path
     d="M 38.99968,16 22.33301,32.66667 V 99.33333 L 38.99968,82.66667 v -50 H 72.33301 L 88.99968,16 Z"
     style="fill:#cb333b;fill-rule:evenodd;stroke:none;stroke-width:0.551179;stroke-linecap:square"
     id="path3-1-7-1" /><path
     id="path4"
     style="display:inline;opacity:0.4;fill:url(#linearGradient18);fill-opacity:1;fill-rule:evenodd;stroke:none;stroke-width:0.551179;stroke-linecap:square;enable-background:new"
     d="M 22.333984 32.666016 L 22.333984 99.333984 L 22.333984 108 C 22.333984 112.432 25.901984 116 30.333984 116 L 39 116 L 55.876953 116 C 57.140533 116 58.259971 115.18612 58.650391 113.98438 L 61.667969 104.69922 C 61.956299 103.81135 62.653136 103.11665 63.541016 102.82812 L 65.859375 102.07617 C 66.747285 101.78742 67.719229 101.93953 68.474609 102.48828 L 76.371094 108.22656 C 77.393304 108.96918 78.778571 108.96918 79.800781 108.22656 L 86.878906 103.08203 C 87.701866 102.48419 88.072649 101.5174 88.074219 100.5332 L 88.080078 96.757812 L 84.921875 90.539062 C 84.633135 89.651152 84.787188 88.677235 85.335938 87.921875 L 86.771484 85.949219 C 87.320184 85.193919 88.195326 84.746174 89.128906 84.746094 L 98.890625 84.748047 C 100.15429 84.748087 101.27364 83.932259 101.66406 82.730469 L 104.36914 74.412109 C 104.48981 74.040679 104.50119 73.657503 104.50195 73.283203 L 104.51172 69.4375 C 104.51272 68.94314 103.72772 71.453068 103.30859 71.148438 L 95.412109 65.410156 C 94.656789 64.861366 94.210937 63.986404 94.210938 63.052734 L 94.210938 60.613281 L 94.210938 16 L 89 16 L 39 16 L 22.333984 32.666016 z M 39 32.666016 L 72.333984 32.666016 L 89 32.666016 L 89 49.333984 L 55.667969 49.333984 L 55.667969 61.833984 L 72.333984 61.833984 L 72.333984 78.5 L 55.667969 78.5 L 55.667969 99.333984 L 39 99.333984 L 39 82.666016 L 39 32.666016 z " /><path
     id="path8"
     style="display:inline;opacity:0.4;fill:url(#linearGradient4);fill-opacity:1;fill-rule:evenodd;stroke:none;stroke-width:0.551179;stroke-linecap:square;enable-background:new"
     d="M 105.66797 49.316406 L 105.66797 32.666016 L 105.66797 20 C 105.66797 18.53937 105.27398 17.176159 104.5957 16 L 94.210938 16 L 94.210938 60.613281 C 94.211028 59.679651 94.656749 58.802616 95.412109 58.253906 L 104.46484 51.675781 C 105.2203 51.127071 105.66797 50.250036 105.66797 49.316406 z " /><path
     d="M 105.66602,28.662762 88.99936,45.333335 H 55.66602 v 12.5 H 72.33269 V 74.500001 H 55.66602 V 95.333334 L 38.99936,112 h 16.87658 c 1.26358,0 2.38287,-0.81362 2.77329,-2.01537 l 3.01663,-9.2845 c 0.28833,-0.887879 0.98537,-1.582629 1.87325,-1.871129 l 2.319,-0.753584 c 0.88791,-0.28875 1.8607,-0.135416 2.61608,0.413334 l 7.89571,5.738209 c 1.02221,0.74262 2.40779,0.74262 3.43,0 l 7.0775,-5.143959 c 1.02233,-0.742667 1.44983,-2.058084 1.05937,-3.259875 l -3.01662,-9.284542 c -0.28875,-0.887917 -0.13334,-1.860708 0.41541,-2.616083 l 1.43405,-1.972333 c 0.5487,-0.755292 1.42412,-1.203542 2.3577,-1.203625 l 9.7625,0.0021 c 1.26367,4.1e-5 2.38288,-0.815709 2.7733,-2.0175 l 2.70441,-8.319875 c 0.39042,-1.20175 -0.0375,-2.519375 -1.05937,-3.262084 l -7.89788,-5.738166 c -0.75533,-0.548792 -1.20146,-1.424083 -1.20146,-2.35775 v -2.439542 c 9e-5,-0.933625 0.44609,-1.811166 1.20146,-2.359875 l 9.05413,-6.577958 c 0.75546,-0.548708 1.20162,-1.426167 1.20162,-2.359792 z"
     style="fill:#418fde;fill-opacity:1;fill-rule:evenodd;stroke:none;stroke-width:0.551179;stroke-linecap:square"
     id="path8-4-4" /><path
     id="path7"
     style="display:inline;fill:#ff585d;fill-opacity:1;fill-rule:evenodd;stroke:none;stroke-width:0.551179;stroke-linecap:square"
     d="m 105.66602,28.692955 v -8.692953 c 0,-4.43199 -3.568,-8 -8.000004,-8 H 89 L 72.333984,28.666018 H 89 v 16.694905 z" /><path
     id="path2"
     style="display:inline;fill:#ff585d;fill-opacity:1;fill-rule:evenodd;stroke:none;stroke-width:0.551179;stroke-linecap:square"
     d="M 22.333984 95.333984 L 22.333984 104 C 22.333984 108.432 25.901984 112 30.333984 112 L 39 112 L 55.666016 95.333984 L 39 95.333984 L 39 78.666016 L 22.333984 95.333984 z " /><path
     d="M 38.99968,12.000002 22.33301,28.666668 V 95.333334 L 38.99968,78.666668 v -50 H 72.33301 L 88.99968,12.000002 Z"
     style="fill:#cb333b;fill-rule:evenodd;stroke:none;stroke-width:0.551179;stroke-linecap:square"
     id="path3-1-7" /><path
     d="M 38.99968,95.333334 H 55.66634 V 74.500001 H 72.33301 V 57.833335 H 55.66634 v -12.5 H 88.99968 V 28.666668 h -50 z"
     style="fill:#ffffff;fill-opacity:1;fill-rule:evenodd;stroke:none;stroke-width:0.551179;stroke-linecap:square"
     id="path9-4-0" /></svg>
